X:1
T:Title
%%score 1 ( 2 3 )
L:1/8
Q:1/4=105
M:4/4
K:D
V:1 treble nm="Grand Piano, Soprano"
V:2 bass nm="Choir Pad, Bass"
V:3 bass 
V:1
 D[CE] [DF]2 [DF]2 [DF]2 | [DF]2 [FA]2 [DF]2 [DF]2 | D[CE] [DF]2 [DF][EG] [FA]2 | [DF]2 [CE]6 | %4
w: By~Knowles~Shaw~ * * * *||||
 D[CE] [DF]2 [DF]2 [DF]2 | [EG][CG] [DA]2 [DF]2 [DF]2 | [FA]2 [GB]2 [GB][Ac] [Gd]2 | [GB]2 [FA]6 | %8
w: ||||
 D[CE] [DF]2 [DF][DA] [DF]2 | [CE]2 D4 z2 | [DF][FA] [GB]2 [GB]2 [Gd]2 | [GB]2 [GB]2 [FA]2 [FA]2 | %12
w: ||||
 [DF][FA] [GB]2 [GB][Ac] [Bd]2 | [Ac][GB] [FA]2 [DF]2 [CE]2 | D[CE] [DF]2 [DF]2 [DF]2 | %15
w: |||
 [DF][FA] [GB]2 [Gd]2 [Gd]2 | [Ac][GB] [FA]2 D[CE] [DF]2 | [CE]2 D6- | D2 z2 z4 |] %19
w: ||||
V:2
 [D,F,][D,G,] [D,A,]2 [D,A,]2 [D,A,]2 | [D,A,]2 [D,A,]2 [D,A,]2 [D,A,]2 | %2
 F,G, [D,A,]2 [D,A,][D,A,] [D,D]2 | [D,A,]2 [A,,A,]6 | [D,F,][D,G,] [D,A,]2 [D,A,]2 [D,A,]2 | %5
 A,-[E,A,] [F,A,]2 [D,A,]2 [D,A,]2 | [D,D]2 [G,D]2 [G,D]2 [G,B,]2 | [G,D]2 [D,D]6 | %8
 [D,F,][D,G,] [D,A,]2 [D,A,][F,A,] A,2 | [A,,G,]2 [D,F,]4 z2 | [D,D]2 [G,D]2 [G,D]2 [B,D]2 | %11
 [G,D]2 [D,D]2 [D,D]2 [D,D]2 | [D,D][D,D] [G,D]2 [G,D][G,D] [G,D]2 | %13
 [G,D][G,D] [D,D]2 [D,A,]2 [A,,A,]2 | A,-[E,A,] [D,A,]2 [D,A,]2 [D,A,]2 | %15
 [D,A,][D,D] [G,D]2 [G,B,]2 [G,B,]2 | [G,D]2 [A,D]2 [F,A,][G,A,] A,2 | [A,,G,]2 [D,F,]6- | %18
 [D,F,]2 z2 z4 |] %19
V:3
 x8 | x8 | D,2 z2 z4 | x8 | x8 | .D,2 z2 z4 | x8 | x8 | x8 | x8 | x8 | x8 | x8 | x8 | .F,2 z2 z4 | %15
 x8 | x8 | x8 | x8 |] %19

